X:25
T:Prparez le chemin du Seigneur
M:C|
L:1/4
K:C
%%continueall 1
EE|G2ED|C2FA|G4|z2EE|G2ED|CCFA|G4|z2GG|c2BA|G2EE|A2GF|E2DC|D2C2|C4!fine!||
EE/E/ F/F/E/D/|C2G,2|GG/G/ A/A/G/F/|E2D2|EE/E/ ^F/F/E/F/|G2A/A/B/c/|B2AA|G4|z2||
